packages/icons/src/svg/table.svg

<svg xmlns="http://www.w3.org/2000/svg" viewBox="0 0 16 16">
	<path d="M16 4H0V0h16zM5 5H0v2h5zm11 0h-5v2h5zm-6 0H6v2h4zM5 8H0v2h5zm11 0h-5v2h5zm-6 0H6v2h4zm-5 3H0v2h5zm11 0h-5v2h5zm-6 0H6v2h4zm-5 3H0v2h5zm11 0h-5v2h5zm-6 0H6v2h4z"/>
</svg>

<svg xmlns="http://www.w3.org/2000/svg" viewBox="0 0 16 16"><path d="M16,4H0V0H16ZM5,5H0V7H5ZM16,5H11V7h5ZM10,5H6V7h4ZM5,8H0v2H5ZM16,8H11v2h5ZM10,8H6v2h4ZM5,11H0v2H5Zm11,0H11v2h5Zm-6,0H6v2h4ZM5,14H0v2H5Zm11,0H11v2h5Zm-6,0H6v2h4Z"/></svg>
